X:1
T:Heaven Holds All to Me
T:Heaven Holds All to Me
T:Tillit Sidney Teddlie
T:Tillit Sidney Teddlie, 1915
T:Public Domain Courtesy of the Cyber Hymnal™
T:Public Domain Courtesy of the Cyber Hymnal™
C:Tillit Sidney Teddlie
Z:Public Domain
Z:Courtesy of the Cyber Hymnal™
%%score ( 1 2 ) ( 3 4 )
L:1/8
Q:1/4=140
M:6/4
K:Ab
V:1 treble 
V:2 treble 
V:3 bass 
V:4 bass 
V:1
 [Ec]2 [=D=B]2 [Ec]2 [_D_B]2 [CA]2 [CB]2 | [DA]2 [DG]2 [DF]2 [DF]2 [CE]4 | %2
w: 1.~Earth holds no trea- sures but|per- ish with us- ing,|
w: 2.~Out on the hills of that|won- der- ful coun- try,|
w: 3.~Why should I long for the|world with its sor- rows,|
 [Ec]2 [Ae]2 [Af]2 [Ae]2 [Ac]2 A2 | [GB]12 | [Ac]2 [A=B]2 [Ac]2 [E_B]2 [EA]2 [=EB]2 | %5
w: How- ev- er pre- cious they|be;|Yet there’s a coun- try to|
w: Hap- py, con- tent- ed and|free,|Loved ones are wait- ing and|
w: When in that home o’er the|sea,|Mil- lions are sing- ing the|
 [FA]2 [EG]2 [DF]2 [DF]2 [CE]4 | [Ec]2 [Ae]2 [Af]2 (e2 !fermata![EB]2) x2 | [EA]12 || %8
w: which I am go- ing:|Hea- ven holds all *|to|
w: watch- ing my com- ing:|Hea- ven holds all *|to|
w: won- der- ful sto- ry?|Hea- ven holds all *|to|
"^Refrain" [Ec]2 [DB]2 [CA]2 [CE]4 [DF]2 | ([CE]6 [EA]6) x2 | [Ec]2 [Ae]2 [Af]2 [Ae]2 [Ac]2 A2 | %11
w: me. * * * *|||
w: me. Hea- ven holds all|to *|me, Bright- er its glo- ry|
w: me. * * * *|||
 [GB]12 | [Ac]2 [A=B]2 [Ac]2 [E_B]2 z2 x4 | [FB]2 [FA]2 [FA]2 [DF]2 !fermata![CE]4 | %14
w: |||
w: will|be; Joy with- out|mea- sure will be my|
w: |||
 [Ec]2"^riten." [Ae]2 [Af]2 ([Ae]2 !fermata![Ac]2) [EB]2 | [EA]12 |] %16
w: ||
w: trea- sure: Hea- ven * holds|all|
w: ||
V:2
 x12 | x12 | x10 A2 | x12 | x12 | x12 | x6 A4 c2 | x12 || x12 | x14 | x10 A2 | x12 | x8 [EA]4 _G2 | %13
 x12 | x12 | x12 |] %16
V:3
 [A,,A,]2 [A,,A,]2 [A,,A,]2 [A,,E,]2 [A,,E,]2 [A,,_G,]2 | %1
 [D,F,]2 [D,F,]2 [D,A,]2 [A,,A,]2 [A,,A,]4 | A,2 [A,C]2 [A,D]2 [A,C]2 [A,E]2 [F,=D]2 | [E,E]12 | %4
 [A,,E]2 [A,,=D]2 [A,,E]2 [A,,_D]2 [A,,C]2 [C,A,]2 | [D,D]2 [D,D]2 [D,A,]2 [A,,A,]2 [A,,A,]4 | %6
 A,2 [A,C]2 [D,D]2 (C2 !fermata![E,D]2) x2 | [A,,A,C]12 || %8
 [A,,A,]2 [A,,A,]2 [A,,E,]2 [A,,A,]4 [A,,A,]2 | A,6- (E,2 [A,,A,C]6) | %10
 A,2 [A,C]2 [A,D]2 [A,C]2 [A,E]2 [A,E]2 | [E,E]12 | [A,,E]2 [A,,=D]2 [A,,E]2 [A,,_D]2 [A,,C]4 x2 | %13
 [D,D]2 [D,D]2 [D,A,]2 [A,,A,]2 !fermata![A,,A,]4 | A,2 [A,C]2 [D,D]2 ([E,C]2 [E,E]2) [E,D]2 | %15
 [A,,C]12 |] %16
V:4
 x12 | x12 | A,2 x10 | x12 | x12 | x12 | A,2 x2 E,4 E2 x2 | x12 || x12 | A,,2- C,2 x10 | A,2 x10 | %11
 x12 | x14 | x12 | A,2 x10 | x12 |] %16

